X: 2551
T: Ballyhoura Mountains, The
R: polka
M: 2/4
K: Amajor
ce/c/ BA|FE A2|cB Bc/B/|Ac/e/ fe|
ce/c/ BA|FA AB|cA/4B/4c/ ec|BA A2|
ce/c/ BA|FA AB|ce/c/ Bc/B/|Ac/e/ fe|
ce/c/ BA|FA AB|cA/4B/4c/ ec|BA A2||
|:ae fe|cA ed/e/|a2 fe|ce Bc/B/|
ae g/f/e|ce fe|c/d/e/c/ Be|cA A2:|

